X: 44
T:Harpur's Frolic
M:2/4
L:1/8
S:New Victory Band arr. Steve Mansfield
R:Reel
N:http://www.lesession.co.uk
Z:Steve Mansfield 1998-2001
K:D
A/G/ | FA DA/G/ | FA Dd | c>d ec | d/c/d/c/ dA/G/ |
FA DA/G/ | FA Dd | c>d ec |1 d3:|2 dA de |:
f2 d/c/d | ge e/f/g/e/ | fd df | e/d/c/B/ Ae | 
f2 d/c/d | ge e/f/g/e/ | fd ec |1 dA de :|2 d3 ||
<end>
<start>
